X:73
T:Shelvin' Rock
S:Bernie Waugh
R:Reel
M:4/4
L:1/8
K:C
|:(3G,A,B,|\
"C"C2D2EDEG|cBcd cAGG|"Am"A2AG Ac3|e3de2 (3G,A,B,|
"C"C2D2E2G2|cdedc2d2|"Am"cGAG "G"EDCC|"C"DC2 C- C2:|
|:gg-|\
"G"gabag2d2|"C"edBd cBGB|"A7"A^f/g/ a2aba"(kludge)  D"g|^f[d2f2][df]- [d2f2]ef|
"G"gabag2d2|"C"edBd c2G2|"Am"cGAG "G"EDCC|"C"D [E2C2] [EC]- [E2C2]:|

